X:602
T:
S:Uppt. efter »Florsen» i Burs.
R:schottis
O:Gotland, Burs
M:2/4
L:1/16
K:G
Bd|b2ag g2fe|d2G2B2d2|c2D2F2A2|GABc d4|
b2ag g2fe|d2G2B2d2|c2D2F2A2|G2G2 G2:|
|:AB|c2D2F2A2|GBdB GBdB|c2D2F2A2|GBdB G2:|

